images/ens.svg

<svg height="250" viewBox="0 0 250 250" width="250" xmlns="http://www.w3.org/2000/svg" xmlns:xlink="http://www.w3.org/1999/xlink"><linearGradient id="a" gradientUnits="userSpaceOnUse" x1="166.520996" x2="-76.467003" y1="279.629486" y2="-148.0625"><stop offset="0" stop-color="#44bcf0"/><stop offset=".378795" stop-color="#7298f8"/><stop offset="1" stop-color="#a099ff"/></linearGradient><path d="m125 0c69.035156 0 125 55.964844 125 125s-55.964844 125-125 125-125-55.964844-125-125 55.964844-125 125-125zm0 0" fill="url(#a)"/><g fill="#fff"><path d="m70.40625 109.164062c1.625 3.453126 5.636719 10.28125 5.636719 10.28125l46.414062-76.445312-45.296875 31.515625c-2.699218 1.792969-4.914062 4.222656-6.449218 7.070313-2.0625 4.296874-3.160157 8.992187-3.210938 13.753906-.050781 4.765625.941406 9.480468 2.90625 13.824218zm0 0"/><path d="m52.015625 134.335938c.511719 7.3125 2.585937 14.429687 6.082031 20.878906 3.496094 6.449218 8.335938 12.078125 14.195313 16.515625l50.101562 34.808593s-31.347656-45.011718-57.785156-89.800781c-2.679687-4.730469-4.476563-9.90625-5.3125-15.273437-.371094-2.429688-.371094-4.902344 0-7.332032-.691406 1.273438-2.027344 3.878907-2.027344 3.878907-2.683593 5.445312-4.507812 11.273437-5.414062 17.273437-.523438 6.339844-.46875 12.71875.160156 19.050782zm0 0"/><path d="m179.835938 140.375c-1.621094-3.453125-5.636719-10.28125-5.636719-10.28125l-46.410157 76.445312 45.296876-31.496093c2.699218-1.796875 4.914062-4.222657 6.445312-7.070313 2.066406-4.300781 3.164062-9 3.21875-13.765625.050781-4.765625-.941406-9.488281-2.914062-13.832031zm0 0"/><path d="m198.226562 115.203125c-.511718-7.3125-2.585937-14.429687-6.082031-20.878906-3.496093-6.453125-8.335937-12.082031-14.191406-16.515625l-50.105469-34.808594s31.328125 45.011719 57.789063 89.800781c2.667969 4.730469 4.460937 9.90625 5.292969 15.269531.367187 2.433594.367187 4.90625 0 7.335938.6875-1.273438 2.027343-3.878906 2.027343-3.878906 2.679688-5.449219 4.503907-11.273438 5.410157-17.273438.53125-6.34375.484374-12.71875-.140626-19.050781zm0 0"/><path d="m70.710938 81.585938c1.535156-2.847657 3.75-5.277344 6.449218-7.070313l45.296875-31.515625-46.414062 76.464844s-4.054688-6.828125-5.636719-10.28125c-1.96875-4.34375-2.964844-9.066406-2.910156-13.832032.050781-4.765624 1.148437-9.464843 3.214844-13.765624zm-18.695313 52.75c.511719 7.3125 2.585937 14.429687 6.082031 20.878906 3.496094 6.449218 8.335938 12.078125 14.195313 16.515625l50.101562 34.808593s-31.347656-45.011718-57.785156-89.800781c-2.679687-4.730469-4.476563-9.90625-5.3125-15.273437-.371094-2.429688-.371094-4.902344 0-7.332032-.691406 1.273438-2.027344 3.878907-2.027344 3.878907-2.683593 5.445312-4.507812 11.273437-5.414062 17.273437-.523438 6.339844-.46875 12.71875.160156 19.050782zm127.742187 6.058593c-1.625-3.453125-5.640624-10.28125-5.640624-10.28125l-46.328126 76.425781 45.296876-31.496093c2.699218-1.796875 4.914062-4.222657 6.445312-7.070313 2.066406-4.300781 3.164062-9 3.21875-13.765625.050781-4.765625-.941406-9.488281-2.914062-13.832031zm18.386719-25.171875c-.511719-7.3125-2.582031-14.429687-6.078125-20.878906-3.5-6.449219-8.339844-12.082031-14.195312-16.515625l-50.023438-34.828125s31.328125 45.011719 57.789063 89.800781c2.667969 4.730469 4.460937 9.90625 5.292969 15.269531.367187 2.433594.367187 4.90625 0 7.335938.6875-1.273438 2.027343-3.878906 2.027343-3.878906 2.679688-5.449219 4.503907-11.273438 5.410157-17.273438.53125-6.34375.484374-12.71875-.140626-19.050781zm0 0"/></g></svg>

<svg xmlns="http://www.w3.org/2000/svg" xmlns:xlink="http://www.w3.org/1999/xlink" width="250px" height="250px" viewBox="0 0 250 250" version="1.1">
<defs>
<linearGradient id="linear0" gradientUnits="userSpaceOnUse" x1="333.041992" y1="559.258972" x2="-152.934006" y2="-296.125" gradientTransform="matrix(0.5,0,0,0.5,0,0)">
<stop offset="0" style="stop-color:rgb(26.666668%,73.725492%,94.117647%);stop-opacity:1;"/>
<stop offset="0.378795" style="stop-color:rgb(44.705883%,59.607846%,97.254902%);stop-opacity:1;"/>
<stop offset="1" style="stop-color:rgb(62.7451%,60.000002%,100%);stop-opacity:1;"/>
</linearGradient>
</defs>
<g id="surface1">
<path style=" stroke:none;fill-rule:nonzero;fill:url(#linear0);" d="M 125 0 C 194.035156 0 250 55.964844 250 125 C 250 194.035156 194.035156 250 125 250 C 55.964844 250 0 194.035156 0 125 C 0 55.964844 55.964844 0 125 0 Z M 125 0 "/>
<path style=" stroke:none;fill-rule:nonzero;fill:rgb(100%,100%,100%);fill-opacity:1;" d="M 70.40625 109.164062 C 72.03125 112.617188 76.042969 119.445312 76.042969 119.445312 L 122.457031 43 L 77.160156 74.515625 C 74.460938 76.308594 72.246094 78.738281 70.710938 81.585938 C 68.648438 85.882812 67.550781 90.578125 67.5 95.339844 C 67.449219 100.105469 68.441406 104.820312 70.40625 109.164062 Z M 70.40625 109.164062 "/>
<path style=" stroke:none;fill-rule:nonzero;fill:rgb(100%,100%,100%);fill-opacity:1;" d="M 52.015625 134.335938 C 52.527344 141.648438 54.601562 148.765625 58.097656 155.214844 C 61.59375 161.664062 66.433594 167.292969 72.292969 171.730469 L 122.394531 206.539062 C 122.394531 206.539062 91.046875 161.527344 64.609375 116.738281 C 61.929688 112.007812 60.132812 106.832031 59.296875 101.464844 C 58.925781 99.035156 58.925781 96.5625 59.296875 94.132812 C 58.605469 95.40625 57.269531 98.011719 57.269531 98.011719 C 54.585938 103.457031 52.761719 109.285156 51.855469 115.285156 C 51.332031 121.625 51.386719 128.003906 52.015625 134.335938 Z M 52.015625 134.335938 "/>
<path style=" stroke:none;fill-rule:nonzero;fill:rgb(100%,100%,100%);fill-opacity:1;" d="M 179.835938 140.375 C 178.214844 136.921875 174.199219 130.09375 174.199219 130.09375 L 127.789062 206.539062 L 173.085938 175.042969 C 175.785156 173.246094 178 170.820312 179.53125 167.972656 C 181.597656 163.671875 182.695312 158.972656 182.75 154.207031 C 182.800781 149.441406 181.808594 144.71875 179.835938 140.375 Z M 179.835938 140.375 "/>
<path style=" stroke:none;fill-rule:nonzero;fill:rgb(100%,100%,100%);fill-opacity:1;" d="M 198.226562 115.203125 C 197.714844 107.890625 195.640625 100.773438 192.144531 94.324219 C 188.648438 87.871094 183.808594 82.242188 177.953125 77.808594 L 127.847656 43 C 127.847656 43 159.175781 88.011719 185.636719 132.800781 C 188.304688 137.53125 190.097656 142.707031 190.929688 148.070312 C 191.296875 150.503906 191.296875 152.976562 190.929688 155.40625 C 191.617188 154.132812 192.957031 151.527344 192.957031 151.527344 C 195.636719 146.078125 197.460938 140.253906 198.367188 134.253906 C 198.898438 127.910156 198.851562 121.535156 198.226562 115.203125 Z M 198.226562 115.203125 "/>
<path style=" stroke:none;fill-rule:nonzero;fill:rgb(100%,100%,100%);fill-opacity:1;" d="M 70.710938 81.585938 C 72.246094 78.738281 74.460938 76.308594 77.160156 74.515625 L 122.457031 43 L 76.042969 119.464844 C 76.042969 119.464844 71.988281 112.636719 70.40625 109.183594 C 68.4375 104.839844 67.441406 100.117188 67.496094 95.351562 C 67.546875 90.585938 68.644531 85.886719 70.710938 81.585938 Z M 52.015625 134.335938 C 52.527344 141.648438 54.601562 148.765625 58.097656 155.214844 C 61.59375 161.664062 66.433594 167.292969 72.292969 171.730469 L 122.394531 206.539062 C 122.394531 206.539062 91.046875 161.527344 64.609375 116.738281 C 61.929688 112.007812 60.132812 106.832031 59.296875 101.464844 C 58.925781 99.035156 58.925781 96.5625 59.296875 94.132812 C 58.605469 95.40625 57.269531 98.011719 57.269531 98.011719 C 54.585938 103.457031 52.761719 109.285156 51.855469 115.285156 C 51.332031 121.625 51.386719 128.003906 52.015625 134.335938 Z M 179.757812 140.394531 C 178.132812 136.941406 174.117188 130.113281 174.117188 130.113281 L 127.789062 206.539062 L 173.085938 175.042969 C 175.785156 173.246094 178 170.820312 179.53125 167.972656 C 181.597656 163.671875 182.695312 158.972656 182.75 154.207031 C 182.800781 149.441406 181.808594 144.71875 179.835938 140.375 Z M 198.144531 115.222656 C 197.632812 107.910156 195.5625 100.792969 192.066406 94.34375 C 188.566406 87.894531 183.726562 82.261719 177.871094 77.828125 L 127.847656 43 C 127.847656 43 159.175781 88.011719 185.636719 132.800781 C 188.304688 137.53125 190.097656 142.707031 190.929688 148.070312 C 191.296875 150.503906 191.296875 152.976562 190.929688 155.40625 C 191.617188 154.132812 192.957031 151.527344 192.957031 151.527344 C 195.636719 146.078125 197.460938 140.253906 198.367188 134.253906 C 198.898438 127.910156 198.851562 121.535156 198.226562 115.203125 Z M 198.144531 115.222656 "/>
</g>
</svg>
